X: 43004
T: Willow Tree
R: reel
M: 4/4
K: Bminor
FBdB B/c/dBA|FBAE F2EF|FBcB fBcB|A^GAc ecdc|
BFF/F/E dBB/B/A|fcdB cdBA|FEFA Bffe|dfecBdcA:|
BFBd fagf|edef B2AB|dcBA FAfd|ecde fedc|
BFBd cAce|dcde fdfa|gfed eAef|dcBA FBBA:|

